assets/icons/book-2.svg

<svg width="20" height="20" viewBox="0 0 20 20" fill="none" xmlns="http://www.w3.org/2000/svg">
<path d="M3.33301 6.66699C3.33301 4.31033 3.33301 3.13116 4.06551 2.39949C4.79717 1.66699 5.97634 1.66699 8.33301 1.66699H11.6663C14.023 1.66699 15.2022 1.66699 15.9338 2.39949C16.6663 3.13116 16.6663 4.31033 16.6663 6.66699V13.3337C16.6663 15.6903 16.6663 16.8695 15.9338 17.6012C15.2022 18.3337 14.023 18.3337 11.6663 18.3337H8.33301C5.97634 18.3337 4.79717 18.3337 4.06551 17.6012C3.33301 16.8695 3.33301 15.6903 3.33301 13.3337V6.66699Z" stroke="currentColor" stroke-width="1.5"/>
<path d="M16.5813 13.334H6.58134C5.80634 13.334 5.41884 13.334 5.10051 13.419C4.6766 13.5327 4.29009 13.7559 3.97982 14.0663C3.66956 14.3767 3.44648 14.7634 3.33301 15.1873" stroke="currentColor" stroke-width="1.5"/>
<path d="M6.66602 5.83398H13.3327M6.66602 8.75065H10.8327M16.2493 15.834H6.66602" stroke="currentColor" stroke-width="1.5" stroke-linecap="round"/>
</svg>

<svg xmlns="http://www.w3.org/2000/svg" width="20" height="20" fill="none" viewBox="0 0 20 20"><path stroke="currentColor" stroke-width="1.5" d="M3.333 6.667c0-2.357 0-3.536.733-4.268.731-.732 1.91-.732 4.267-.732h3.333c2.357 0 3.536 0 4.268.732s.732 1.911.732 4.268v6.667c0 2.356 0 3.535-.732 4.267s-1.911.733-4.268.733H8.333c-2.357 0-3.536 0-4.267-.733-.733-.732-.733-1.91-.733-4.267z"/><path stroke="currentColor" stroke-width="1.5" d="M16.581 13.334h-10c-.775 0-1.162 0-1.48.085a2.5 2.5 0 0 0-1.768 1.768"/><path stroke="currentColor" stroke-linecap="round" stroke-width="1.5" d="M6.666 5.834h6.667M6.666 8.751h4.167m5.416 7.083H6.666"/></svg>
